X: 03011
T: BLACK FRIDAY
C: Bob McQuillen 15 Apr.1977
B: Bob's Note Book 03 #11
%R: jig
%D:1977
Z: 2020 John Chambers <jc:trillian.mit.edu>
M: 6/8
L: 1/8
K: Em
B, \
| E2G FGF | E2G FGA | BcB BAG | GAB AGF |\
| E2G FGF | E2G FGA | BcB AGF | GEE E2 :|
|: B \
| efg gfe | ded Bd2 | efg gag | f2d dBd |\
| eBB fBB | gab a2a | bag fed | Bee e2 :|
%%begintext align
%% Fri., Apr.15, 1977
%%endtext

%%sep 1 1 500

%%sep 1 1 500

